icons/file-symlink-file-24.svg

<svg xmlns="http://www.w3.org/2000/svg" width="24" height="24" viewBox="0 0 24 24"><path d="M3 3a2 2 0 012-2h9.982a2 2 0 011.414.586l4.018 4.018A2 2 0 0121 7.018V21a2 2 0 01-2 2H4.75a.75.75 0 010-1.5H19a.5.5 0 00.5-.5V8.5h-4a2 2 0 01-2-2v-4H5a.5.5 0 00-.5.5v6.25a.75.75 0 01-1.5 0zm6.308 11.5l-2.104-2.236a.751.751 0 01.369-1.255.749.749 0 01.723.227l3.294 3.5a.75.75 0 010 1.028l-3.294 3.5a.749.749 0 01-1.275-.293.751.751 0 01.183-.735L9.308 16H4.09a2.59 2.59 0 00-2.59 2.59v3.16a.75.75 0 01-1.5 0v-3.16a4.09 4.09 0 014.09-4.09zM15 2.5v4a.5.5 0 00.5.5h4a.5.5 0 00-.146-.336l-4.018-4.018A.5.5 0 0015 2.5z"/></svg>

<svg xmlns="http://www.w3.org/2000/svg" width="24" height="24" viewBox="0 0 24 24">
  <defs/>
  <path d="M3,3 C3,1.895 3.895,1 5,1 L14.982,1 C15.512,1 16.021,1.211 16.396,1.586 L20.414,5.604 C20.789,5.979 21,6.488 21,7.018 L21,21 C21,22.105 20.105,23 19,23 L4.75,23 C4.336,23 4,22.664 4,22.25 C4,21.836 4.336,21.5 4.75,21.5 L19,21.5 C19.276,21.5 19.5,21.276 19.5,21 L19.5,8.5 L15.5,8.5 C14.395,8.5 13.5,7.605 13.5,6.5 L13.5,2.5 L5,2.5 C4.724,2.5 4.5,2.724 4.5,3 L4.5,9.25 C4.5,9.664 4.164,10 3.75,10 C3.336,10 3,9.664 3,9.25 Z M9.308,14.5 L7.204,12.264 C7.015,12.07 6.945,11.789 7.021,11.529 C7.098,11.268 7.309,11.07 7.573,11.009 C7.837,10.948 8.114,11.035 8.296,11.236 L11.59,14.736 C11.862,15.025 11.862,15.475 11.59,15.764 L8.296,19.264 C8.114,19.465 7.837,19.552 7.573,19.491 C7.309,19.43 7.098,19.232 7.021,18.971 C6.945,18.711 7.015,18.43 7.204,18.236 L9.308,16 L4.09,16 C2.66,16 1.5,17.16 1.5,18.59 L1.5,21.75 C1.5,22.164 1.164,22.5 0.75,22.5 C0.336,22.5 0,22.164 0,21.75 L0,18.59 C0,16.331 1.831,14.5 4.09,14.5 Z M15,2.5 L15,6.5 C15,6.776 15.224,7 15.5,7 L19.5,7 C19.496,6.874 19.443,6.753 19.354,6.664 L15.336,2.646 C15.247,2.557 15.126,2.504 15,2.5 Z"/>
</svg>
